packages/icons/src/components/Logo/assets/light/c-panel.svg

<svg width="22" height="20" viewBox="0 0 22 20" fill="none" xmlns="http://www.w3.org/2000/svg">
<path d="M2.51031 9.10759H3.78129L3.58484 9.86175C3.55712 9.96056 3.49785 10.0476 3.41608 10.1096C3.33423 10.1728 3.23334 10.2062 3.12998 10.2045H2.54327C2.41414 10.2023 2.28812 10.2442 2.18597 10.3232C2.08158 10.4042 2.00582 10.5165 1.96974 10.6436C1.94382 10.7373 1.94066 10.8358 1.96051 10.931C1.98034 11.0172 2.01758 11.0984 2.06995 11.1696C2.12349 11.2403 2.19309 11.2973 2.27299 11.3358C2.35699 11.3773 2.44957 11.3985 2.54327 11.3977H2.89925C2.9646 11.3965 3.02651 11.4269 3.06537 11.4795C3.10691 11.5304 3.12027 11.5986 3.10097 11.6614L2.87684 12.4947H2.4813C2.22216 12.4973 1.96635 12.4361 1.73638 12.3167C1.51646 12.2053 1.32378 12.0469 1.17208 11.8526C1.02231 11.6584 0.917793 11.4332 0.866202 11.1934C0.810923 10.9393 0.817707 10.6756 0.885979 10.4247L0.908392 10.3337C0.95585 10.1566 1.03249 9.98863 1.13517 9.8367C1.23615 9.68936 1.35986 9.55896 1.50169 9.45039C1.64348 9.34159 1.80201 9.25654 1.97106 9.19857C2.14433 9.13778 2.32669 9.10702 2.51031 9.10759ZM3.15239 12.5L4.25725 8.34817C4.28498 8.24759 4.34526 8.15904 4.42865 8.09634C4.51043 8.03196 4.61201 7.99794 4.71607 8.0001H5.89081C6.148 7.9985 6.40176 8.05912 6.63046 8.17677C7.08077 8.40557 7.40422 8.82489 7.51118 9.31854C7.56682 9.57228 7.55912 9.83582 7.48877 10.0859L7.46636 10.1703C7.41905 10.3476 7.34288 10.516 7.2409 10.6686C7.1424 10.8194 7.01993 10.953 6.87833 11.0642C6.58886 11.2872 6.23379 11.4081 5.8684 11.4083H4.85055L5.04832 10.637C5.0757 10.5384 5.13448 10.4513 5.21576 10.3891C5.29805 10.3257 5.39929 10.2918 5.50319 10.2929H5.83939C6.10933 10.2923 6.3442 10.108 6.40896 9.84592C6.43456 9.75617 6.43728 9.66145 6.41687 9.57037C6.39762 9.484 6.36033 9.40268 6.30744 9.33173C6.25214 9.26256 6.18239 9.20632 6.10308 9.16692C6.02148 9.12498 5.93114 9.10284 5.83939 9.10232H5.20522L4.3891 12.1558C4.36076 12.2544 4.30162 12.3412 4.22033 12.4037C4.14048 12.4669 4.04137 12.5009 3.93951 12.5H3.15239ZM10.1652 10.2836L10.1824 10.2217C10.1907 10.1954 10.1853 10.1666 10.1679 10.1452C10.1515 10.1229 10.1256 10.1097 10.098 10.1096H8.27061C8.0516 10.1105 7.86211 9.95741 7.81706 9.74309C7.80062 9.67106 7.80062 9.59625 7.81706 9.52422L7.93045 9.09705H10.4078C10.5543 9.09494 10.699 9.12986 10.8284 9.19857C10.9522 9.2623 11.0607 9.35228 11.1461 9.46226C11.2316 9.57255 11.2915 9.70045 11.3215 9.8367C11.3531 9.98039 11.35 10.1296 11.3123 10.2718L10.868 11.9264C10.7793 12.2629 10.4736 12.4964 10.1257 12.4934L8.2983 12.4828C7.9942 12.4851 7.70667 12.3445 7.52173 12.1031C7.43424 11.9857 7.37308 11.8508 7.34242 11.7076C7.30815 11.5579 7.31177 11.402 7.35297 11.254L7.37538 11.1696C7.4023 11.0653 7.44689 10.9663 7.50723 10.877C7.56748 10.7893 7.64085 10.7115 7.72477 10.6462C7.80853 10.5848 7.90155 10.5372 8.00033 10.5051C8.10336 10.4695 8.2117 10.4517 8.32071 10.4524H9.85538L9.74332 10.8743C9.71515 10.9729 9.65598 11.0598 9.57455 11.1222C9.49437 11.1847 9.39538 11.2181 9.29372 11.2171H8.60813C8.54878 11.2135 8.4961 11.2548 8.48552 11.3134C8.47325 11.3512 8.48176 11.3928 8.50793 11.4228C8.532 11.4535 8.56912 11.4711 8.60813 11.4703H9.71563C9.75402 11.4708 9.79154 11.4588 9.82242 11.436C9.85216 11.4145 9.87247 11.3824 9.87912 11.3463L9.88966 11.3015L10.1652 10.2836ZM13.4389 9.10759C13.6998 9.10464 13.9574 9.16576 14.1891 9.28558C14.41 9.39829 14.6032 9.55859 14.7547 9.75495C14.9059 9.95226 15.0105 10.1812 15.0606 10.4247C15.1155 10.6796 15.1069 10.944 15.0356 11.1947L14.7547 12.2495C14.7376 12.3221 14.6945 12.3859 14.6334 12.4288C14.5747 12.4735 14.5029 12.4976 14.4291 12.4973H13.8213C13.6822 12.5 13.5801 12.3674 13.6182 12.2336L13.9558 10.9574C13.9818 10.8677 13.985 10.773 13.965 10.6818C13.9455 10.5953 13.9078 10.5139 13.8542 10.4432C13.7418 10.296 13.5674 10.2093 13.3822 10.2085H12.752L12.2075 12.2521C12.1898 12.3245 12.1468 12.3881 12.0862 12.4314C12.0254 12.477 11.9512 12.5011 11.8752 12.5H11.2727C11.2096 12.4993 11.1505 12.4691 11.1132 12.4182C11.0705 12.3674 11.0566 12.2983 11.0763 12.235L11.9043 9.10759H13.4389ZM16.7509 10.1795C16.7071 10.2133 16.6741 10.2591 16.6559 10.3113L16.4028 11.2672C16.3873 11.3176 16.3977 11.3723 16.4305 11.4136C16.461 11.4559 16.5101 11.4809 16.5623 11.4808H18.892L18.7114 12.1493C18.6836 12.248 18.6243 12.335 18.5426 12.3971C18.4629 12.4605 18.3637 12.4945 18.2618 12.4934H16.1444C15.9978 12.4952 15.853 12.4613 15.7225 12.3945C15.5983 12.3313 15.4898 12.2412 15.4047 12.1308C15.3202 12.0189 15.2605 11.8904 15.2294 11.7537C15.198 11.6111 15.203 11.4628 15.2439 11.3226L15.5867 10.0463C15.6236 9.91007 15.6829 9.78086 15.762 9.66398C15.9151 9.43459 16.1393 9.26181 16.4002 9.1722C16.5326 9.12482 16.6722 9.10073 16.8128 9.101H18.3145C18.4614 9.09951 18.6063 9.13439 18.7365 9.20252C18.8603 9.26629 18.9687 9.35628 19.0542 9.46621C19.1399 9.57634 19.1986 9.70503 19.2256 9.84197C19.2557 9.98543 19.2521 10.1339 19.215 10.2757L19.1135 10.6581C19.0724 10.8214 18.976 10.9654 18.8406 11.0655C18.7078 11.1681 18.5443 11.2229 18.3765 11.2211H16.6784L16.7904 10.8044C16.8151 10.7056 16.8728 10.6181 16.9539 10.5566C17.0358 10.4934 17.1366 10.4599 17.24 10.4616H17.9269C17.9864 10.4648 18.0392 10.4238 18.0509 10.3654L18.0733 10.281C18.0935 10.1995 18.0333 10.1201 17.9493 10.1175H16.9038C16.8471 10.1196 16.793 10.1415 16.7509 10.1795ZM18.892 12.5L20.0233 8.25324C20.041 8.18017 20.0834 8.11545 20.1432 8.06997C20.204 8.02417 20.2781 7.99962 20.3542 8.0001H20.9567C21.0236 7.99842 21.0873 8.0288 21.1281 8.08184C21.1692 8.133 21.1816 8.20147 21.1611 8.26379L20.3173 11.3977C20.2773 11.5582 20.2095 11.7103 20.1169 11.8473C20.028 11.9796 19.918 12.0963 19.7912 12.1928C19.6644 12.2898 19.5229 12.366 19.3719 12.4182C19.2177 12.4723 19.0555 12.4999 18.892 12.5Z" fill="#F26C32"/>
</svg>

<svg xmlns="http://www.w3.org/2000/svg" width="22" height="20" fill="none" viewBox="0 0 22 20">
    <path fill="#f26c32" d="M2.51 9.108h1.271l-.196.754a.47.47 0 0 1-.455.342h-.587a.57.57 0 0 0-.357.12.61.61 0 0 0-.116.846.6.6 0 0 0 .473.228H2.9a.2.2 0 0 1 .166.082c.042.05.055.119.036.181l-.224.834H2.48a1.6 1.6 0 0 1-.745-.178 1.646 1.646 0 0 1-.85-1.892l.022-.091A1.65 1.65 0 0 1 1.97 9.199a1.6 1.6 0 0 1 .54-.091m.642 3.392 1.105-4.152A.47.47 0 0 1 4.717 8H5.89c.257-.002.51.06.74.177.45.229.773.648.88 1.142a1.6 1.6 0 0 1-.022.767l-.023.084a1.7 1.7 0 0 1-.225.499 1.7 1.7 0 0 1-.363.395c-.29.223-.644.344-1.01.344H4.851l.197-.771a.47.47 0 0 1 .455-.344h.336c.27 0 .505-.185.57-.447a.56.56 0 0 0 .008-.276.6.6 0 0 0-.11-.238.6.6 0 0 0-.468-.23h-.634l-.816 3.054a.48.48 0 0 1-.169.248.45.45 0 0 1-.28.096zm7.013-2.216.017-.062a.08.08 0 0 0-.014-.077.1.1 0 0 0-.07-.035H8.271a.46.46 0 0 1-.454-.367.5.5 0 0 1 0-.219l.113-.427h2.478a.9.9 0 0 1 .42.102.96.96 0 0 1 .494.638.9.9 0 0 1-.01.435l-.444 1.654a.76.76 0 0 1-.742.567l-1.828-.01a.97.97 0 0 1-.956-.775.9.9 0 0 1 .011-.454l.022-.084A.94.94 0 0 1 8 10.505a1 1 0 0 1 .32-.053h1.535l-.112.422a.48.48 0 0 1-.168.248.45.45 0 0 1-.281.095h-.686a.12.12 0 0 0-.122.096.11.11 0 0 0 .022.11c.024.03.061.048.1.047h1.108a.2.2 0 0 0 .106-.034.14.14 0 0 0 .057-.09l.01-.044zm3.274-1.176c.26-.003.518.058.75.178a1.65 1.65 0 0 1 .847 1.91l-.281 1.053a.3.3 0 0 1-.122.18.34.34 0 0 1-.204.068h-.608a.207.207 0 0 1-.203-.263l.338-1.277a.56.56 0 0 0 .009-.275.6.6 0 0 0-.583-.473h-.63l-.545 2.043a.3.3 0 0 1-.12.18.34.34 0 0 1-.212.068h-.602a.2.2 0 0 1-.16-.082.2.2 0 0 1-.037-.183l.828-3.127zm3.312 1.072a.3.3 0 0 0-.095.131l-.253.956a.16.16 0 0 0 .027.147c.031.042.08.067.132.067h2.33l-.18.668a.47.47 0 0 1-.45.344h-2.118a.9.9 0 0 1-.421-.098.94.94 0 0 1-.494-.641.9.9 0 0 1 .015-.431l.343-1.277a1.28 1.28 0 0 1 1.226-.945h1.502a.9.9 0 0 1 .421.102 1 1 0 0 1 .318.263.95.95 0 0 1 .16.81l-.1.382a.73.73 0 0 1-.273.408.75.75 0 0 1-.465.155h-1.698l.112-.417a.456.456 0 0 1 .45-.343h.687a.12.12 0 0 0 .124-.096l.022-.084a.132.132 0 0 0-.124-.164h-1.045a.24.24 0 0 0-.153.063m2.141 2.32 1.131-4.247a.33.33 0 0 1 .12-.183.35.35 0 0 1 .211-.07h.603a.21.21 0 0 1 .171.082c.041.051.054.12.033.182l-.844 3.134q-.061.242-.2.45a1.5 1.5 0 0 1-1.225.653"/>
</svg>
